boundlessconnect/icons/eye-slash.svg

<svg height="48" viewBox="0 0 64 48" width="64" xmlns="http://www.w3.org/2000/svg"><path d="m19.821429 37.3929 2.785714-5.0358q-3.107143-2.25-4.857143-5.6785-1.75-3.4286-1.75-7.25 0-4.3215 2.178571-8.0357-8.178571 4.1785-13.6071424 12.6071 5.9642854 9.2143 15.2500004 13.3929zm13.892857-27.1072q0-.7143-.5-1.2143-.5-.5-1.214286-.5-4.464286 0-7.660714 3.1965-3.196429 3.1964-3.196429 7.6607 0 .7143.5 1.2143.5.5 1.214286.5.714286 0 1.214286-.5.5-.5.5-1.2143 0-3.0715 2.178571-5.25 2.178571-2.1786 5.25-2.1786.714286 0 1.214286-.5.5-.5.5-1.2143zm12.964285-6.8214q0 .25-.03571.3214-3.75 6.7143-11.25 20.2143-7.5 13.5-11.285714 20.25l-1.75 3.1786q-.357147.5714-1.000004.5714-.428572 0-4.785714-2.5-.571429-.3571-.571429-1 0-.4286 1.571429-3.1071-5.107143-2.3215-9.4107147-6.1786-4.3035714-3.8572-7.44642859-8.75-.71428571-1.1072-.71428571-2.4643 0-1.3571.71428571-2.4643 5.46428569-8.3928 13.57142829-13.25 8.107143-4.8571 17.714286-4.8571 3.178571 0 6.428571.6071l1.928572-3.4643q.357143-.5714 1-.5714.178571 0 .642857.2143.464286.2143 1.107143.5536.642857.3392 1.178571.6607.535715.3214 1.125.6607.589286.3393.696429.4107.571428.3571.571428.9643zm1.321429 15.9643q0 4.9643-2.821429 9.0535-2.821428 4.0893-7.464285 5.875l10-17.9285q.285714 1.6071.285714 3zm16 4.5714q0 1.25-.714286 2.4643-1.392857 2.2857-3.892857 5.1786-5.357143 6.1428-12.410714 9.5357-7.053572 3.3928-14.982143 3.3928l2.642857-4.7143q7.571429-.6428 14.017857-4.8928 6.446429-4.25 10.767857-10.9643-4.107142-6.3929-10.071428-10.5l2.25-4q3.392857 2.2857 6.517857 5.4643 3.125 3.1786 5.160714 6.5714.714286 1.2143.714286 2.4643z"/></svg>

<?xml version="1.0" encoding="UTF-8" standalone="no"?>
<svg
   xmlns:dc="http://purl.org/dc/elements/1.1/"
   xmlns:cc="http://creativecommons.org/ns#"
   xmlns:rdf="http://www.w3.org/1999/02/22-rdf-syntax-ns#"
   xmlns:svg="http://www.w3.org/2000/svg"
   xmlns="http://www.w3.org/2000/svg"
   xmlns:sodipodi="http://sodipodi.sourceforge.net/DTD/sodipodi-0.dtd"
   xmlns:inkscape="http://www.inkscape.org/namespaces/inkscape"
   width="64"
   height="48"
   viewBox="0 0 64 48"
   id="svg3308"
   version="1.1"
   inkscape:version="0.48.5 r10040"
   sodipodi:docname="eye-slash.svg">
  <metadata
     id="metadata3316">
    <rdf:RDF>
      <cc:Work
         rdf:about="">
        <dc:format>image/svg+xml</dc:format>
        <dc:type
           rdf:resource="http://purl.org/dc/dcmitype/StillImage" />
      </cc:Work>
    </rdf:RDF>
  </metadata>
  <defs
     id="defs3314" />
  <sodipodi:namedview
     pagecolor="#ffffff"
     bordercolor="#666666"
     borderopacity="1"
     objecttolerance="10"
     gridtolerance="10"
     guidetolerance="10"
     inkscape:pageopacity="0"
     inkscape:pageshadow="2"
     inkscape:window-width="1362"
     inkscape:window-height="745"
     id="namedview3312"
     showgrid="false"
     fit-margin-top="0"
     fit-margin-left="0"
     fit-margin-right="0"
     fit-margin-bottom="0"
     inkscape:zoom="0.13169643"
     inkscape:cx="896"
     inkscape:cy="736"
     inkscape:window-x="2"
     inkscape:window-y="0"
     inkscape:window-maximized="1"
     inkscape:current-layer="svg3308" />
  <path
     d="m 19.821429,37.3929 2.785714,-5.0358 Q 19.5,30.1071 17.75,26.6786 16,23.25 16,19.4286 16,15.1071 18.178571,11.3929 10,15.5714 4.5714286,24 10.535714,33.2143 19.821429,37.3929 z M 33.714286,10.2857 q 0,-0.7143 -0.5,-1.2143 -0.5,-0.5 -1.214286,-0.5 -4.464286,0 -7.660714,3.1965 -3.196429,3.1964 -3.196429,7.6607 0,0.7143 0.5,1.2143 0.5,0.5 1.214286,0.5 0.714286,0 1.214286,-0.5 0.5,-0.5 0.5,-1.2143 0,-3.0715 2.178571,-5.25 Q 28.928571,12 32,12 q 0.714286,0 1.214286,-0.5 0.5,-0.5 0.5,-1.2143 z M 46.678571,3.4643 q 0,0.25 -0.03571,0.3214 -3.75,6.7143 -11.25,20.2143 -7.5,13.5 -11.285714,20.25 l -1.75,3.1786 Q 22,48 21.357143,48 20.928571,48 16.571429,45.5 16,45.1429 16,44.5 16,44.0714 17.571429,41.3929 12.464286,39.0714 8.1607143,35.2143 3.8571429,31.3571 0.71428571,26.4643 0,25.3571 0,24 0,22.6429 0.71428571,21.5357 6.1785714,13.1429 14.285714,8.2857 22.392857,3.4286 32,3.4286 q 3.178571,0 6.428571,0.6071 L 40.357143,0.5714 Q 40.714286,0 41.357143,0 41.535714,0 42,0.2143 42.464286,0.4286 43.107143,0.7679 43.75,1.1071 44.285714,1.4286 44.821429,1.75 45.410714,2.0893 46,2.4286 46.107143,2.5 46.678571,2.8571 46.678571,3.4643 z M 48,19.4286 q 0,4.9643 -2.821429,9.0535 -2.821428,4.0893 -7.464285,5.875 l 10,-17.9285 Q 48,18.0357 48,19.4286 z M 64,24 q 0,1.25 -0.714286,2.4643 -1.392857,2.2857 -3.892857,5.1786 -5.357143,6.1428 -12.410714,9.5357 Q 39.928571,44.5714 32,44.5714 l 2.642857,-4.7143 Q 42.214286,39.2143 48.660714,34.9643 55.107143,30.7143 59.428571,24 55.321429,17.6071 49.357143,13.5 l 2.25,-4 Q 55,11.7857 58.125,14.9643 61.25,18.1429 63.285714,21.5357 64,22.75 64,24 z"
     id="path3310"
     inkscape:connector-curvature="0" />
</svg>
